X: 159
T: Black Velvet Band
M:3/4
R:waltz
Q:1/4=180
L:1/8
Z:added by Alf warnock alf0@rogers.com - www.alfwarnock.info/alfs
K:D
A2| "D"A4 A2| F2 G2 A2| "G"G2 F4| "D"F4 E2|\
"D"D2 E2 F2| "F#m"D2 C2 B,2| "Em"A,6| "A7"A,4 G2|
"D"F2 F2 F2| "A7"A,2 B,2 C2| "D"D4 E2| "Bm"F4 D2|\
"Em"E2 F2 G2| "A7"C2 D2 E2| "D"D6| D4 |]

